X: 211
M: C
L: 1/8
K: A
V: 1
c/B/ |\
f |\
e>cA>c d>efd | e>cAc BGEf | e>cAc d>efa | e<cd>c ~B2 Af |
e>cAc d>efd | e>cAc (d/c/B/A/) Gf | e<cd>e f>gaf | e<cac TB2A |]
V: 2 clef=bass middle=d
z |\
z |\
a2a2 d2d2 | a2a2 e2e2 | a2a2 d2d2 | a2a2 e2A2 |
a2a2 d2d2 | a2a2 e2e2 | a2a2 d2d2 | e2e2 e2A |]


